Breeze Round Light/actions/16/zoom-in.svg

<svg xmlns="http://www.w3.org/2000/svg" viewBox="0 0 16 16">
  <defs id="defs3051">
<style type="text/css" id="current-color-scheme">.ColorScheme-Text {color:#fcfcfc;}</style>
  </defs>
 <path style="fill:currentColor;fill-opacity:1;stroke:none" 
       d="M 2,4 H 3 C 3,3 4,3 4,3 V 2 C 4,2 2,2 2,4 Z M 7,2 V 3 H 9 V 2 Z m 5,0 v 1 c 0,0 1,0 1,1 h 1 C 14,2 12,2 12,2 Z M 8,4 v 1 h 2.292969 L 7,8.2929688 7.7070312,9 11,5.7070312 V 8 h 1 V 4 H 11 Z M 2,7 V 9 H 3 V 7 Z m 11,0 v 2 h 1 V 7 Z M 2,10 v 4 h 4 v -4 z m 1,1 h 2 v 2 H 3 Z m 10,1 c 0,1 -1,1 -1,1 v 1 c 0,0 2,0 2,-2 z m -6,1 v 1 h 2 v -1 z"
     class="ColorScheme-Text"
     />
</svg>

<svg xmlns="http://www.w3.org/2000/svg" viewBox="0 0 16 16">
  <defs id="defs3051">
    <style type="text/css" id="current-color-scheme">
      .ColorScheme-Text {
        color:#232629;
      }
      </style>
  </defs>
 <path style="fill:currentColor;fill-opacity:1;stroke:none" 
       d="M 2 2 L 2 3 L 2 4 L 3 4 L 3 3 L 4 3 L 4 2 L 3 2 L 2 2 z M 7 2 L 7 3 L 9 3 L 9 2 L 7 2 z M 12 2 L 12 3 L 13 3 L 13 4 L 14 4 L 14 3 L 14 2 L 13 2 L 12 2 z M 8 4 L 8 5 L 10.292969 5 L 7 8.2929688 L 7.7070312 9 L 11 5.7070312 L 11 8 L 12 8 L 12 4 L 11 4 L 8 4 z M 2 7 L 2 9 L 3 9 L 3 7 L 2 7 z M 13 7 L 13 9 L 14 9 L 14 7 L 13 7 z M 2 10 L 2 14 L 6 14 L 6 10 L 2 10 z M 3 11 L 5 11 L 5 13 L 3 13 L 3 11 z M 13 12 L 13 13 L 12 13 L 12 14 L 13 14 L 14 14 L 14 12 L 13 12 z M 7 13 L 7 14 L 9 14 L 9 13 L 7 13 z "
     class="ColorScheme-Text"
     />
</svg>
